static/img/in-field/inputs-info.svg

<svg width="468" height="94" viewBox="0 0 468 94" fill="none" xmlns="http://www.w3.org/2000/svg">
<rect x="1" y="1" width="466" height="54" rx="3" fill="white"/>
<path d="M22.9717 37H21.1348V22.9062H16.1934V21.2949H27.8916V22.9062H22.9717V37ZM34.7803 25.0117C35.7829 25.0117 36.6423 25.2337 37.3584 25.6777C38.0745 26.1217 38.6224 26.7448 39.002 27.5469C39.3815 28.3418 39.5713 29.2728 39.5713 30.3398V31.4463H31.4395C31.4609 32.8285 31.8047 33.8812 32.4707 34.6045C33.1367 35.3278 34.0749 35.6895 35.2852 35.6895C36.0299 35.6895 36.6888 35.6214 37.2617 35.4854C37.8346 35.3493 38.429 35.1488 39.0449 34.8838V36.4521C38.4505 36.7171 37.8597 36.9105 37.2725 37.0322C36.6924 37.154 36.0049 37.2148 35.21 37.2148C34.0785 37.2148 33.0902 36.9857 32.2451 36.5273C31.4072 36.0618 30.7555 35.3815 30.29 34.4863C29.8245 33.5911 29.5918 32.4954 29.5918 31.1992C29.5918 29.9316 29.8031 28.8359 30.2256 27.9121C30.6553 26.9811 31.2568 26.265 32.0303 25.7637C32.8109 25.2624 33.7275 25.0117 34.7803 25.0117ZM34.7588 26.4727C33.8063 26.4727 33.0472 26.7842 32.4814 27.4072C31.9157 28.0303 31.5791 28.9004 31.4717 30.0176H37.7021C37.695 29.3158 37.584 28.6999 37.3691 28.1699C37.1615 27.6328 36.8428 27.2174 36.4131 26.9238C35.9834 26.623 35.432 26.4727 34.7588 26.4727ZM45.6543 30.9736L41.583 25.2266H43.624L46.7285 29.7598L49.8223 25.2266H51.8418L47.7705 30.9736L52.0674 37H50.0264L46.7285 32.1982L43.4092 37H41.3896L45.6543 30.9736ZM58.4189 35.7539C58.7126 35.7539 59.0133 35.7288 59.3213 35.6787C59.6292 35.6286 59.8799 35.5677 60.0732 35.4961V36.8818C59.8656 36.9749 59.5755 37.0537 59.2031 37.1182C58.8379 37.1826 58.4798 37.2148 58.1289 37.2148C57.5059 37.2148 56.9401 37.1074 56.4316 36.8926C55.9232 36.6706 55.515 36.2982 55.207 35.7754C54.9062 35.2526 54.7559 34.5293 54.7559 33.6055V26.623H53.0801V25.7529L54.7666 25.0547L55.4756 22.498H56.5498V25.2266H59.998V26.623H56.5498V33.5518C56.5498 34.2894 56.7181 34.8408 57.0547 35.2061C57.3984 35.5713 57.8532 35.7539 58.4189 35.7539ZM68.9414 37V21.2949H70.7676V37H68.9414ZM80.6426 25.0117C82.0391 25.0117 83.0954 25.3555 83.8115 26.043C84.5277 26.7233 84.8857 27.819 84.8857 29.3301V37H83.124V29.4482C83.124 28.4671 82.8984 27.7331 82.4473 27.2461C82.0033 26.7591 81.3193 26.5156 80.3955 26.5156C79.0921 26.5156 78.1755 26.8844 77.6455 27.6221C77.1156 28.3597 76.8506 29.4303 76.8506 30.834V37H75.0674V25.2266H76.5068L76.7754 26.9238H76.8721C77.1227 26.5085 77.4414 26.1611 77.8281 25.8818C78.2148 25.5954 78.6481 25.3805 79.1279 25.2373C79.6077 25.0869 80.1126 25.0117 80.6426 25.0117ZM94.3418 25.0117C95.8099 25.0117 96.9808 25.5166 97.8545 26.5264C98.7282 27.5361 99.165 29.0544 99.165 31.0811C99.165 32.4202 98.9645 33.5446 98.5635 34.4541C98.1624 35.3636 97.5967 36.0511 96.8662 36.5166C96.1429 36.9821 95.2871 37.2148 94.2988 37.2148C93.6758 37.2148 93.1279 37.1325 92.6553 36.9678C92.1826 36.8031 91.778 36.5811 91.4414 36.3018C91.1048 36.0225 90.8255 35.7181 90.6035 35.3887H90.4746C90.4961 35.668 90.5212 36.0046 90.5498 36.3984C90.5856 36.7923 90.6035 37.1361 90.6035 37.4297V42.2637H88.8096V25.2266H90.2812L90.5176 26.9668H90.6035C90.8327 26.6087 91.112 26.2829 91.4414 25.9893C91.7708 25.6885 92.1719 25.4521 92.6445 25.2803C93.1243 25.1012 93.6901 25.0117 94.3418 25.0117ZM94.0303 26.5156C93.2139 26.5156 92.555 26.6732 92.0537 26.9883C91.5596 27.3034 91.1979 27.776 90.9688 28.4062C90.7396 29.0293 90.6178 29.8135 90.6035 30.7588V31.1025C90.6035 32.098 90.7109 32.9395 90.9258 33.627C91.1478 34.3145 91.5094 34.8372 92.0107 35.1953C92.5192 35.5534 93.1995 35.7324 94.0518 35.7324C94.7822 35.7324 95.391 35.5355 95.8779 35.1416C96.3649 34.7477 96.7266 34.1999 96.9629 33.498C97.2064 32.7891 97.3281 31.9762 97.3281 31.0596C97.3281 29.6702 97.056 28.5674 96.5117 27.751C95.9746 26.9274 95.1475 26.5156 94.0303 26.5156ZM112.252 25.2266V37H110.791L110.533 35.3457H110.437C110.193 35.7539 109.878 36.0977 109.491 36.377C109.104 36.6562 108.668 36.8639 108.181 37C107.701 37.1432 107.189 37.2148 106.645 37.2148C105.714 37.2148 104.933 37.0645 104.303 36.7637C103.673 36.4629 103.196 35.9974 102.874 35.3672C102.559 34.737 102.401 33.9277 102.401 32.9395V25.2266H104.206V32.8105C104.206 33.7917 104.428 34.5257 104.872 35.0127C105.316 35.4925 105.993 35.7324 106.902 35.7324C107.776 35.7324 108.471 35.5677 108.986 35.2383C109.509 34.9089 109.885 34.4255 110.114 33.7881C110.343 33.1436 110.458 32.3558 110.458 31.4248V25.2266H112.252ZM120.075 35.7539C120.369 35.7539 120.67 35.7288 120.978 35.6787C121.285 35.6286 121.536 35.5677 121.729 35.4961V36.8818C121.522 36.9749 121.232 37.0537 120.859 37.1182C120.494 37.1826 120.136 37.2148 119.785 37.2148C119.162 37.2148 118.596 37.1074 118.088 36.8926C117.579 36.6706 117.171 36.2982 116.863 35.7754C116.562 35.2526 116.412 34.5293 116.412 33.6055V26.623H114.736V25.7529L116.423 25.0547L117.132 22.498H118.206V25.2266H121.654V26.623H118.206V33.5518C118.206 34.2894 118.374 34.8408 118.711 35.2061C119.055 35.5713 119.509 35.7539 120.075 35.7539Z" fill="#252A2E"/>
<rect x="1" y="1" width="466" height="54" rx="3" stroke="#353A40" stroke-width="2"/>
<g clip-path="url(#clip0_7345_82999)">
<path d="M5.1377 79.5C5.1377 81.066 5.43159 82.6166 6.00261 84.0635C6.57363 85.5103 7.41059 86.8249 8.46569 87.9322C9.5208 89.0395 10.7734 89.9179 12.152 90.5172C13.5305 91.1165 15.0081 91.425 16.5002 91.425C17.9923 91.425 19.4699 91.1165 20.8484 90.5172C22.227 89.9179 23.4796 89.0395 24.5347 87.9322C25.5898 86.8249 26.4268 85.5103 26.9978 84.0635C27.5688 82.6166 27.8627 81.066 27.8627 79.5C27.8627 77.9339 27.5688 76.3833 26.9978 74.9365C26.4268 73.4896 25.5898 72.175 24.5347 71.0677C23.4796 69.9604 22.227 69.082 20.8484 68.4827C19.4699 67.8834 17.9923 67.575 16.5002 67.575C15.0081 67.575 13.5305 67.8834 12.152 68.4827C10.7734 69.082 9.5208 69.9604 8.46569 71.0677C7.41059 72.175 6.57363 73.4896 6.00261 74.9365C5.43159 76.3833 5.1377 77.9339 5.1377 79.5Z" fill="#019AEB"/>
<path d="M16.4998 68.5875C22.5186 68.5875 27.4123 73.4813 27.4123 79.5C27.4123 85.5188 22.5186 90.4125 16.4998 90.4125C10.4811 90.4125 5.5873 85.5188 5.5873 79.5C5.5873 73.4813 10.4811 68.5875 16.4998 68.5875ZM16.4998 66.675C9.4123 66.675 3.6748 72.4125 3.6748 79.5C3.6748 86.5875 9.4123 92.325 16.4998 92.325C23.5873 92.325 29.3248 86.5875 29.3248 79.5C29.3248 72.4125 23.5873 66.675 16.4998 66.675Z" fill="#0E416C"/>
<path d="M17.7373 83.2687H18.6373V84.9562H14.3623V83.2687H15.6561V79.3312H14.3623V77.5875H17.7373V83.2687ZM15.5436 76.5187H17.7373V74.0437H15.5436V76.5187Z" fill="white"/>
</g>
<path d="M51.083 88H49.2568V80.6094H40.9854V88H39.1592V72.2949H40.9854V78.9766H49.2568V72.2949H51.083V88ZM60.3564 88.2148C58.6162 88.2148 57.2412 87.6849 56.2314 86.625C55.2288 85.5651 54.7275 84.0934 54.7275 82.21C54.7275 80.3122 55.193 78.8047 56.124 77.6875C57.0622 76.5703 58.319 76.0117 59.8945 76.0117C61.3698 76.0117 62.5371 76.4987 63.3965 77.4727C64.2559 78.4395 64.6855 79.7178 64.6855 81.3076V82.4355H56.5752C56.611 83.8177 56.9583 84.8669 57.6172 85.583C58.2832 86.2992 59.2178 86.6572 60.4209 86.6572C61.6885 86.6572 62.9417 86.3923 64.1807 85.8623V87.4521C63.5505 87.7243 62.9525 87.9176 62.3867 88.0322C61.8281 88.154 61.1514 88.2148 60.3564 88.2148ZM59.873 77.5049C58.9277 77.5049 58.1722 77.8128 57.6064 78.4287C57.0479 79.0446 56.7184 79.8968 56.6182 80.9854H62.7734C62.7734 79.861 62.5228 79.0016 62.0215 78.4072C61.5202 77.8057 60.804 77.5049 59.873 77.5049ZM69.7695 88H67.9863V71.2852H69.7695V88ZM79.2793 88.2148C78.513 88.2148 77.8112 88.0752 77.1738 87.7959C76.5436 87.5094 76.0137 87.0726 75.584 86.4854H75.4551C75.541 87.1729 75.584 87.8245 75.584 88.4404V93.2852H73.8008V76.2266H75.251L75.498 77.8379H75.584C76.0423 77.1934 76.5758 76.7279 77.1846 76.4414C77.7933 76.1549 78.4915 76.0117 79.2793 76.0117C80.8405 76.0117 82.0436 76.5452 82.8887 77.6123C83.7409 78.6794 84.167 80.1761 84.167 82.1025C84.167 84.0361 83.7337 85.54 82.8672 86.6143C82.0078 87.6813 80.8118 88.2148 79.2793 88.2148ZM79.0215 77.5264C77.8184 77.5264 76.9482 77.8594 76.4111 78.5254C75.874 79.1914 75.5983 80.2513 75.584 81.7051V82.1025C75.584 83.7568 75.8597 84.9421 76.4111 85.6582C76.9626 86.3672 77.847 86.7217 79.0645 86.7217C80.0814 86.7217 80.8763 86.3099 81.4492 85.4863C82.0293 84.6628 82.3193 83.5277 82.3193 82.0811C82.3193 80.613 82.0293 79.4886 81.4492 78.708C80.8763 77.9202 80.0671 77.5264 79.0215 77.5264ZM92.5166 88.2148C90.7764 88.2148 89.4014 87.6849 88.3916 86.625C87.389 85.5651 86.8877 84.0934 86.8877 82.21C86.8877 80.3122 87.3532 78.8047 88.2842 77.6875C89.2223 76.5703 90.4792 76.0117 92.0547 76.0117C93.5299 76.0117 94.6973 76.4987 95.5566 77.4727C96.416 78.4395 96.8457 79.7178 96.8457 81.3076V82.4355H88.7354C88.7712 83.8177 89.1185 84.8669 89.7773 85.583C90.4434 86.2992 91.3779 86.6572 92.5811 86.6572C93.8486 86.6572 95.1019 86.3923 96.3408 85.8623V87.4521C95.7106 87.7243 95.1126 87.9176 94.5469 88.0322C93.9883 88.154 93.3115 88.2148 92.5166 88.2148ZM92.0332 77.5049C91.0879 77.5049 90.3324 77.8128 89.7666 78.4287C89.208 79.0446 88.8786 79.8968 88.7783 80.9854H94.9336C94.9336 79.861 94.6829 79.0016 94.1816 78.4072C93.6803 77.8057 92.9642 77.5049 92.0332 77.5049ZM105.518 76.0117C106.04 76.0117 106.509 76.0547 106.925 76.1406L106.678 77.7949C106.191 77.6875 105.761 77.6338 105.389 77.6338C104.436 77.6338 103.62 78.0205 102.939 78.7939C102.266 79.5674 101.93 80.5306 101.93 81.6836V88H100.146V76.2266H101.618L101.822 78.4072H101.908C102.345 77.641 102.871 77.0501 103.487 76.6348C104.103 76.2194 104.78 76.0117 105.518 76.0117ZM120.444 88H118.618V73.917H113.645V72.2949H125.418V73.917H120.444V88ZM132.747 88.2148C131.007 88.2148 129.632 87.6849 128.622 86.625C127.619 85.5651 127.118 84.0934 127.118 82.21C127.118 80.3122 127.584 78.8047 128.515 77.6875C129.453 76.5703 130.71 76.0117 132.285 76.0117C133.76 76.0117 134.928 76.4987 135.787 77.4727C136.646 78.4395 137.076 79.7178 137.076 81.3076V82.4355H128.966C129.002 83.8177 129.349 84.8669 130.008 85.583C130.674 86.2992 131.608 86.6572 132.812 86.6572C134.079 86.6572 135.332 86.3923 136.571 85.8623V87.4521C135.941 87.7243 135.343 87.9176 134.777 88.0322C134.219 88.154 133.542 88.2148 132.747 88.2148ZM132.264 77.5049C131.318 77.5049 130.563 77.8128 129.997 78.4287C129.438 79.0446 129.109 79.8968 129.009 80.9854H135.164C135.164 79.861 134.913 79.0016 134.412 78.4072C133.911 77.8057 133.195 77.5049 132.264 77.5049ZM143.213 81.9736L139.12 76.2266H141.15L144.255 80.7383L147.349 76.2266H149.357L145.265 81.9736L149.572 88H147.553L144.255 83.2305L140.925 88H138.905L143.213 81.9736ZM155.967 86.7432C156.282 86.7432 156.586 86.7217 156.88 86.6787C157.174 86.6286 157.406 86.5785 157.578 86.5283V87.8926C157.385 87.9857 157.098 88.0609 156.719 88.1182C156.346 88.1826 156.01 88.2148 155.709 88.2148C153.432 88.2148 152.293 87.0153 152.293 84.6162V77.6123H150.606V76.7529L152.293 76.0117L153.045 73.498H154.076V76.2266H157.492V77.6123H154.076V84.541C154.076 85.25 154.244 85.7943 154.581 86.1738C154.918 86.5534 155.38 86.7432 155.967 86.7432Z" fill="black"/>
<defs>
<clipPath id="clip0_7345_82999">
<rect width="27" height="27" fill="white" transform="translate(3 66)"/>
</clipPath>
</defs>
</svg>

<svg width="468" height="94" fill="none" xmlns="http://www.w3.org/2000/svg"><rect x="1" y="1" width="466" height="54" rx="3" fill="#fff"/><path d="M22.972 37h-1.837V22.906h-4.942v-1.611h11.699v1.611h-4.92V37zM34.78 25.012c1.003 0 1.862.222 2.578.666.717.444 1.264 1.067 1.644 1.869.38.795.57 1.726.57 2.793v1.106h-8.133c.022 1.382.366 2.435 1.032 3.159.666.723 1.604 1.085 2.814 1.085.745 0 1.404-.069 1.977-.205a10.9 10.9 0 001.783-.601v1.568a8.676 8.676 0 01-1.773.58c-.58.122-1.267.183-2.062.183-1.132 0-2.12-.23-2.965-.688-.838-.465-1.49-1.145-1.955-2.04-.465-.896-.698-1.992-.698-3.288 0-1.267.211-2.363.634-3.287.43-.93 1.03-1.647 1.804-2.148.78-.502 1.697-.752 2.75-.752zm-.021 1.46c-.953 0-1.712.312-2.278.935-.565.623-.902 1.493-1.01 2.61h6.231c-.007-.701-.118-1.317-.333-1.847-.208-.537-.526-.953-.956-1.246-.43-.301-.981-.451-1.654-.451zm10.895 4.502l-4.071-5.747h2.041l3.104 4.533 3.094-4.533h2.02l-4.072 5.747L52.067 37h-2.04l-3.299-4.802L43.41 37h-2.02l4.265-6.026zm12.765 4.78c.294 0 .594-.025.902-.075.308-.05.559-.111.752-.183v1.386c-.207.093-.498.172-.87.236a6.179 6.179 0 01-1.074.097 4.32 4.32 0 01-1.697-.322c-.509-.222-.917-.595-1.225-1.118-.3-.522-.451-1.246-.451-2.17v-6.982H53.08v-.87l1.687-.698.709-2.557h1.074v2.729h3.448v1.396H56.55v6.929c0 .737.168 1.289.505 1.654.343.365.798.548 1.364.548zM68.94 37V21.295h1.827V37H68.94zm11.702-11.988c1.396 0 2.452.343 3.168 1.031.717.68 1.075 1.776 1.075 3.287V37h-1.762v-7.552c0-.98-.226-1.715-.677-2.202-.444-.487-1.128-.73-2.052-.73-1.303 0-2.22.368-2.75 1.106-.53.738-.794 1.808-.794 3.212V37h-1.784V25.227h1.44l.268 1.697h.097c.25-.415.57-.763.956-1.042.387-.287.82-.502 1.3-.645.48-.15.985-.225 1.515-.225zm13.699 0c1.468 0 2.639.505 3.513 1.514.873 1.01 1.31 2.528 1.31 4.555 0 1.34-.2 2.464-.602 3.373-.4.91-.966 1.597-1.697 2.063-.723.465-1.579.698-2.567.698-.623 0-1.171-.083-1.644-.247a3.878 3.878 0 01-1.214-.666 4.347 4.347 0 01-.838-.913h-.128l.075 1.01c.036.393.053.737.053 1.03v4.835H88.81V25.227h1.471l.237 1.74h.085c.23-.358.509-.684.838-.978.33-.3.73-.537 1.203-.709.48-.179 1.046-.268 1.698-.268zm-.312 1.504c-.816 0-1.475.157-1.976.472-.494.315-.856.788-1.085 1.418-.23.623-.351 1.408-.365 2.353v.343c0 .996.107 1.838.322 2.525.222.688.583 1.21 1.085 1.568.508.358 1.189.537 2.04.537.731 0 1.34-.197 1.827-.59.487-.394.849-.942 1.085-1.644.243-.709.365-1.522.365-2.438 0-1.39-.272-2.493-.816-3.309-.537-.824-1.365-1.235-2.482-1.235zm18.222-1.29V37h-1.461l-.258-1.654h-.096a3.427 3.427 0 01-.946 1.031c-.387.28-.823.487-1.31.623-.48.143-.992.215-1.536.215-.931 0-1.712-.15-2.342-.451a3.036 3.036 0 01-1.429-1.397c-.315-.63-.473-1.44-.473-2.427v-7.713h1.805v7.583c0 .982.222 1.716.666 2.203.444.48 1.121.72 2.03.72.874 0 1.569-.165 2.084-.495.523-.33.899-.813 1.128-1.45.229-.644.344-1.432.344-2.363v-6.198h1.794zm7.823 10.528c.294 0 .595-.025.903-.075.307-.05.558-.111.751-.183v1.386c-.207.093-.497.172-.87.236a6.174 6.174 0 01-1.074.097 4.317 4.317 0 01-1.697-.322c-.509-.222-.917-.595-1.225-1.118-.301-.522-.451-1.246-.451-2.17v-6.982h-1.676v-.87l1.687-.698.709-2.557h1.074v2.729h3.448v1.396h-3.448v6.929c0 .737.168 1.289.505 1.654.344.365.798.548 1.364.548z" fill="#252A2E"/><rect x="1" y="1" width="466" height="54" rx="3" stroke="#353A40" stroke-width="2"/><g clip-path="url(#prefix__clip0_7345_82999)"><path d="M5.138 79.5c0 1.566.294 3.117.865 4.564a11.98 11.98 0 002.463 3.868 11.343 11.343 0 003.686 2.585c1.379.6 2.856.908 4.348.908s2.97-.308 4.348-.908a11.343 11.343 0 003.687-2.585 11.98 11.98 0 002.463-3.868 12.44 12.44 0 00.865-4.564 12.44 12.44 0 00-.865-4.564 11.98 11.98 0 00-2.463-3.868 11.343 11.343 0 00-3.687-2.585 10.898 10.898 0 00-4.348-.908c-1.492 0-2.97.308-4.348.908a11.343 11.343 0 00-3.686 2.585 11.98 11.98 0 00-2.463 3.868 12.439 12.439 0 00-.865 4.564z" fill="#019AEB"/><path d="M16.5 68.588c6.019 0 10.912 4.893 10.912 10.912 0 6.019-4.893 10.912-10.912 10.912-6.019 0-10.913-4.893-10.913-10.912 0-6.019 4.894-10.912 10.913-10.912zm0-1.913c-7.088 0-12.825 5.737-12.825 12.825 0 7.088 5.737 12.825 12.825 12.825 7.087 0 12.825-5.737 12.825-12.825 0-7.088-5.738-12.825-12.825-12.825z" fill="#0E416C"/><path d="M17.737 83.269h.9v1.687h-4.275V83.27h1.294V79.33h-1.294v-1.743h3.375v5.68zm-2.193-6.75h2.193v-2.475h-2.193v2.475z" fill="#fff"/></g><path d="M51.083 88h-1.826v-7.39h-8.272V88H39.16V72.295h1.826v6.682h8.272v-6.682h1.826V88zm9.273.215c-1.74 0-3.115-.53-4.125-1.59-1.002-1.06-1.504-2.532-1.504-4.415 0-1.898.466-3.405 1.397-4.522.938-1.118 2.195-1.676 3.77-1.676 1.476 0 2.643.487 3.503 1.46.859.968 1.289 2.246 1.289 3.836v1.127h-8.11c.035 1.383.382 2.432 1.041 3.148.666.716 1.6 1.074 2.804 1.074 1.267 0 2.52-.265 3.76-.795v1.59a9.113 9.113 0 01-1.794.58c-.559.122-1.236.183-2.03.183zm-.483-10.71c-.945 0-1.7.308-2.267.924-.558.616-.888 1.468-.988 2.556h6.155c0-1.124-.25-1.983-.752-2.578-.5-.601-1.217-.902-2.148-.902zM69.769 88h-1.783V71.285h1.783V88zm9.51.215a5.19 5.19 0 01-2.105-.42 4.002 4.002 0 01-1.59-1.31h-.129c.086.688.129 1.34.129 1.955v4.845h-1.783V76.227h1.45l.247 1.61h.086c.458-.644.992-1.11 1.6-1.396.61-.286 1.308-.43 2.095-.43 1.562 0 2.765.534 3.61 1.601.852 1.067 1.278 2.564 1.278 4.49 0 1.934-.433 3.438-1.3 4.512-.86 1.067-2.055 1.6-3.588 1.6zm-.257-10.689c-1.204 0-2.074.333-2.61 1-.538.665-.814 1.725-.828 3.18v.397c0 1.654.276 2.84.827 3.555.552.71 1.436 1.064 2.653 1.064 1.017 0 1.812-.412 2.385-1.236.58-.823.87-1.958.87-3.405 0-1.468-.29-2.592-.87-3.373-.573-.788-1.382-1.182-2.427-1.182zm13.495 10.689c-1.74 0-3.116-.53-4.125-1.59-1.003-1.06-1.504-2.532-1.504-4.415 0-1.898.465-3.405 1.396-4.522.938-1.118 2.195-1.676 3.77-1.676 1.476 0 2.643.487 3.503 1.46.859.968 1.289 2.246 1.289 3.836v1.127h-8.11c.035 1.383.382 2.432 1.041 3.148.666.716 1.6 1.074 2.804 1.074 1.268 0 2.52-.265 3.76-.795v1.59a9.114 9.114 0 01-1.794.58c-.559.122-1.236.183-2.03.183zm-.484-10.71c-.945 0-1.7.308-2.266.924-.559.616-.888 1.468-.989 2.556h6.156c0-1.124-.251-1.983-.752-2.578-.502-.601-1.218-.902-2.149-.902zm13.485-1.493c.522 0 .991.043 1.407.129l-.247 1.654a6.078 6.078 0 00-1.289-.161c-.953 0-1.769.386-2.45 1.16-.673.773-1.009 1.737-1.009 2.89V88h-1.784V76.227h1.472l.204 2.18h.086c.437-.766.963-1.357 1.579-1.772a3.556 3.556 0 012.031-.623zM120.444 88h-1.826V73.917h-4.973v-1.622h11.773v1.622h-4.974V88zm12.303.215c-1.74 0-3.115-.53-4.125-1.59-1.003-1.06-1.504-2.532-1.504-4.415 0-1.898.466-3.405 1.397-4.522.938-1.118 2.195-1.676 3.77-1.676 1.475 0 2.643.487 3.502 1.46.859.968 1.289 2.246 1.289 3.836v1.127h-8.11c.036 1.383.383 2.432 1.042 3.148.666.716 1.6 1.074 2.804 1.074 1.267 0 2.52-.265 3.759-.795v1.59a9.104 9.104 0 01-1.794.58c-.558.122-1.235.183-2.03.183zm-.483-10.71c-.946 0-1.701.308-2.267.924-.559.616-.888 1.468-.988 2.556h6.155c0-1.124-.251-1.983-.752-2.578-.501-.601-1.217-.902-2.148-.902zm10.949 4.469l-4.093-5.747h2.03l3.105 4.511 3.094-4.511h2.008l-4.092 5.747L149.572 88h-2.019l-3.298-4.77-3.33 4.77h-2.02l4.308-6.026zm12.754 4.77a6.3 6.3 0 00.913-.065c.294-.05.526-.1.698-.15v1.364c-.193.093-.48.168-.859.225a5.985 5.985 0 01-1.01.097c-2.277 0-3.416-1.2-3.416-3.599v-7.004h-1.687v-.86l1.687-.74.752-2.514h1.031v2.729h3.416v1.385h-3.416v6.929c0 .709.168 1.253.505 1.633.337.38.799.57 1.386.57z" fill="#000"/><defs><clipPath id="prefix__clip0_7345_82999"><path fill="#fff" transform="translate(3 66)" d="M0 0h27v27H0z"/></clipPath></defs></svg>
